X: 1
T: String Quartet in F\# Minor opus 50 no 4 mvt 1
C: Franz Joseph Haydn
%%abc-version 2.0
%%abcx-abcm2ps-target-version 5.9.1 (29 Sep 2008)
%%abc-creator hum2abc beta
%%abcx-conversion-date 2021/02/14 14:38:14
%%abc-copyright Copyright (c) 1994, 2000 Center for Computer Assisted Research in the Humanities
%%abc-edited-by Frances Bennion
%%abcx-initial-encoding-date 1997/04/15
%%gracespace 0 6 6
%%humdrum-veritas 1505745830
%%humdrum-veritas-data 3954912612
%%linebreak <none>
%%barnumbers 0
L: 1/8
M: 3/4
N: Derived from op50n4-01.krn
Q: "Allegro spirito"
%%staves [1 2 3 4]
V: 1
V: 2
V: 3 clef=alto
V: 4 clef=bass
K: A
[V:1]z2 >C2 CC [I:setbarnb1]|
[V:2]z2 >C2 CC |
[V:3]z2 >C2 CC |
[V:4]z2 >C,2 C,C, |
[V:1]F4 C2 |
[V:2]F4 C2 |
[V:3]F4 C2 |
[V:4]F,4 C,2 |
[V:1]A,2 za aa |
[V:2]A,2 z4 |
[V:3]A,2 z4 |
[V:4]A,,2 z4 |
[V:1]a2 g^e ee |
[V:2]z6 |
[V:3]z6 |
[V:4]z6 |
[V:1]g2 fc cc |
[V:2]z6 |
[V:3]z6 |
[V:4]z6 |
[V:1]e2 dc BA |
[V:2]z2 >A2 GF |
[V:3]z2 >A,2 B,C |
[V:4]z2 >F,2 G,A, |
[V:1]G2 zB BB |
[V:2]^E2 z4 |
[V:3]D2 z4 |
[V:4]B,2 z4 |
[V:1]d2 cB AG |
[V:2]z2 >G2 F^E |
[V:3]z2 >^E2 FB, |
[V:4]z2 >C,2 F,,C, |
[V:1]F2 z4 |
[V:2]F2 z4 |
[V:3]A,2 zC CC |
[V:4]F,2 z4 |
[V:1]z^A Bc df |
[V:2]zF2 E DC |
[V:3]E2 DC B,A, |
[V:4]z6 |
[V:1]f2 ^ez3 |
[V:2]B,2 z4 |
[V:3]G,2 zB, B,B, |
[V:4]z6 |
[V:1]zG Bd cB |
[V:2]z^E2 E FE |
[V:3]D2 CB, A,G, |
[V:4]z6 |
[V:1]B2 Az3 |
[V:2]F2 z4 |
[V:3]F,2 z4 |
[V:4]z2 >C,2 C,C, |
[V:1]z2 >a2 ga |
[V:2]z2 >e2 dc |
[V:3]z2 >E,2 EE |
[V:4]E,2 D,C, B,,A,, |
[V:1]d'2 z4 |
[V:2]B2 z4 |
[V:3]E2 z4 |
[V:4]G,,2 zB,, B,,B,, |
[V:1]z2 >g2 ab |
[V:2]z2 >d2 cB |
[V:3]z2 >E2 Ed |
[V:4]D,2 C,B,, A,,G,, |
[V:1]c'2 za aa |
[V:2]A2 z4 |
[V:3]c2 z4 |
[V:4]A,,2 z4 |
[V:1]g2 ae ee |
[V:2]zB cz3 |
[V:3]zE A,z3 |
[V:4]zD Cz3 |
[V:1]d2 cB BB |
[V:2]zB EF FF |
[V:3]zE AD DD |
[V:4]zG, A,z3 |
[V:1]=c2 B^A BG |
[V:2]=G2 FE FD |
[V:3]E2 DC DB, |
[V:4]z6 |
[V:1]AB cB c^d |
[V:2]EE EE EA |
[V:3]CD CD CA, |
[V:4]zG, A,G, A,F, |
[V:1]ef ga f^d |
[V:2]GA Bc AF |
[V:3]B,A, G,F, A,B, |
[V:4]E,6- |
[V:1]eg b^a =af |
[V:2]EB, C2 ^D2 |
[V:3]G,2 F,3 A, |
[V:4]E,6- |
[V:1]ef ga f^d |
[V:2]E^D =DC A,B, |
[V:3]G,A, B,C zF, |
[V:4]E,6- |
[V:1]eg b^a =af |
[V:2]G,B, C2 ^D2 |
[V:3]G,2 F,3 A, |
[V:4]E,6- |
[V:1]eg b^a =af |
[V:2]EB, C2 ^D2 |
[V:3]G,2 F,3 A, |
[V:4]E,6 |
[V:1]e^d fe =dB |
[V:2]E^D FE =DB, |
[V:3]G,^D FE =DB, |
[V:4]E,^D, F,E, =D,B,, |
[V:1]A4 E2 |
[V:2]A4 Ez |
[V:3]A,4 E,2 |
[V:4]A,,4 E,,2 |
[V:1]C2 za aa |
[V:2]C/E/C/E/ C/E/C/E/ C/E/C/E/ |
[V:3]A,/C/A,/C/ A,/C/A,/C/ A,/C/A,/C/ |
[V:4]C,,2 z4 |
[V:1]b2 ge ee |
[V:2]D/E/D/E/ D/E/D/E/ D/E/D/E/ |
[V:3]B,/G,/B,/G,/ B,/G,/B,/G,/ B,/G,/B,/G,/ |
[V:4]E,2 z4 |
[V:1]c'2 ac' c'c' |
[V:2]C/E/C/E/ C/E/C/E/ C/E/C/E/ |
[V:3]A,/C/A,/C/ A,/C/A,/C/ A,/C/A,/C/ |
[V:4]A,,2 z4 |
[V:1]d'2 bb/g/ ee |
[V:2]B,/E/B,/E/ B,/E/B,/E/ D/E/D/E/ |
[V:3]G,/E,/G,/E,/ G,/E,/G,/E,/ B,/G,/B,/G,/ |
[V:4]E,2 z4 |
[V:1]e'2 c'e' e'e' |
[V:2]C/E/C/E/ C/E/C/E/ C/E/C/E/ |
[V:3]A,/C/A,/C/ A,/C/A,/C/ A,/C/A,/C/ |
[V:4]A,,2 z4 |
[V:1]e'2 d'2 c'2 |
[V:2]F/^A/F/A/ F/B/F/B/ E/c/E/c/ |
[V:3]C2 B,2 ^A,2 |
[V:4]D,6- |
[V:1]b2 zd' d'd' |
[V:2]D/F/D/F/ D/F/D/F/ D/F/D/F/ |
[V:3]B,/D/B,/D/ B,/D/B,/D/ B,/D/B,/D/ |
[V:4]D,D, D,D, D,D, |
[V:1]d'2 c'2 b2 |
[V:2]=F2 E2 DG |
[V:3]G,/B,/A,/G,/ A,/C/A,/C/ B,/D/B,/D/ |
[V:4]E,6 |
[V:1]a2 za aa |
[V:2]A2 z4 |
[V:3]C/E/C/E/ C/E/C/E/ C/E/C/E/ |
[V:4]A,,2 z4 |
[V:1]b/c'/b/c'/ aa aa |
[V:2]z2 c/e/c/e/ c/e/c/e/ |
[V:3]D/E/D/E/ Cz3 |
[V:4]z6 |
[V:1]d'/e'/d'/e'/ c'a' a'a' |
[V:2]G/e/G/e/ Aa aa |
[V:3]z6 |
[V:4]z6 |
[V:1]a'6- |
[V:2]a6- |
[V:3]z2 >^E2 EE |
[V:4]z2 >^E,2 E,E, |
[V:1]a'2 >a'2 a'a' |
[V:2]a2 >a2 aa |
[V:3]^E2 F=E =GF |
[V:4]^E,2 F,=E, =G,F, |
[V:1]a'a' a'a' a'3/b'//c''// |
[V:2]aa aa a3/b//c'// |
[V:3]ED CB, A,=G, |
[V:4]E,D, C,B,, A,,=G,, |
[V:1]d''2 zF ED |
[V:2]d'2 zD CB, |
[V:3]F,2 z4 |
[V:4]F,,2 z4 |
[V:1]C2 >E2 DB, |
[V:2]A,2 >C2 B,G, |
[V:3]z2 >A,2 B,D |
[V:4]E,,E, E,E, E,E, |
[V:1]A,2 z4 |
[V:2]A,/C/E/C/ A/E/c/A/ e/c/a/c/ |
[V:3]C2 z[EC] [EC][EC] |
[V:4]A,,2 zA, A,A, |
[V:1]e^d/e/ c'/d'/b/g/ e/d/f/=d/ |
[V:2]d2 z4 |
[V:3][E2B,2] z[EB,] [EB,][EB,] |
[V:4]G,2 zG, G,G, |
[V:1]c2 z4 |
[V:2]A,/C/E/C/ A/E/c/A/ e/c/a/c/ |
[V:3][E2C2] z[CE] [EC][EC] |
[V:4]A,2 zA, A,A, |
[V:1]e^d/e/ c'/d'/b/g/ e/d/f/=d/ |
[V:2]d2 z4 |
[V:3][B,2E2] z[EB,] [EB,][EB,] |
[V:4]G,2 zG, G,G, |
[V:1]c/e/a/c'/ e'e' e'e' |
[V:2]z2 A,C/E/ A/c/e/c/ |
[V:3][E2C2] z4 |
[V:4]A,2 z4 |
[V:1]e'/d'/d'/c'/ c'/b/b/a/ a/g/g/f/ |
[V:2]fe dc BA |
[V:3]z6 |
[V:4]z6 |
[V:1]f^e =e^d =dc |
[V:2]G4 A2 |
[V:3]z6 |
[V:4]z6 |
[V:1]BB2 B2 B- |
[V:2]DE =FE =GF |
[V:3]B,B,2 B,2 B,- |
[V:4]D,E, =F,E, =G,F, |
[V:1]BB2 B2 B |
[V:2]DE =FE =GF |
[V:3]B,B,2 B,2 B, |
[V:4]D,E, =F,E, =G,F, |
[V:1]=cc2 c2 c |
[V:2]^DE FE =cD |
[V:3]=CC2 C2 C |
[V:4]^D,E, F,E, =CD, |
[V:1]c/A/e/c/ a/e/c'/a/ e'/c'/a/e/ |
[V:2]A2 z4 |
[V:3]C2 z4 |
[V:4]E,2 z4 |
[V:1]b6 |
[V:2]GG GG GG |
[V:3]DD DD DD |
[V:4]E,E, E,E, E,E, |
[V:1]a2 za ec |
[V:2]A2 zA EC |
[V:3]CE, C,2 z2 |
[V:4]A,,E,, C,,2 z2 |
[V:1]f2 zf dB |
[V:2]F2 zF DB, |
[V:3]D,F, A,D FD |
[V:4]D,,F,, A,,D, F,B, |
[V:1]A2 >c2 BG |
[V:2]A,2 >C2 B,G, |
[V:3]C2 z2 E,2 |
[V:4]E,A, CE DB, |
[V:1]A2 za ec |
[V:2]A,2 zA EC |
[V:3]A,E, C,2 z2 |
[V:4]A,,E,, C,,2 z2 |
[V:1]f2 zf dB |
[V:2]F2 zF DB, |
[V:3]D,F, A,D FD |
[V:4]D,,F,, A,,D, F,B, |
[V:1]A2 >c2 BG |
[V:2]A,2 >C2 B,G, |
[V:3]C2 z2 E,2 |
[V:4]E,A, CE DB, |
[V:1]AB cd BG |
[V:2]CD EF DB, |
[V:3]A,2 z2 E2 |
[V:4]A,2 z2 E,2 |
[V:1]AB cd BG |
[V:2]AG =GF DB, |
[V:3]CD ED B,D |
[V:4]A,,2 z2 E,2 |
[V:1]A2 za aa |
[V:2]C2 zA AA |
[V:3]C2 zA AA |
[V:4]A,,2 zA, A,A, |
[V:1]d'4 a2 |
[V:2]d4 A2 |
[V:3]d4 A2 |
[V:4]D4 A,2 |
[V:1]f2 zd dd |
[V:2]F/A/F/A/ F/A/F/A/ F/A/F/A/ |
[V:3]D/F/D/F/ D/F/D/F/ D/F/D/F/ |
[V:4]D,2 z4 |
[V:1]e2 cA AA |
[V:2]=G/A/G/A/ G/A/G/A/ G/A/G/A/ |
[V:3]E/C/E/C/ E/C/E/C/ E/C/E/C/ |
[V:4]A,,2 z4 |
[V:1]f2 df ff |
[V:2]F/A/F/A/ F/A/F/A/ F/A/F/A/ |
[V:3]D/F/D/F/ D/F/D/F/ D/F/D/F/ |
[V:4]D,2 z4 |
[V:1]=g2 ec Ag |
[V:2]E/A/E/A/ E/A/E/A/ =G/A/G/A/ |
[V:3]A,/C/A,/C/ A,/C/A,/C/ E/C/E/C/ |
[V:4]A,,2 z4 |
[V:1]a2 fa aa |
[V:2]F/A/F/A/ F/A/F/A/ F/A/F/A/ |
[V:3]D/F/D/F/ D/F/D/F/ D/F/D/F/ |
[V:4]D,,2 z4 |
[V:1]=c'2 b2 a2 |
[V:2]F/A/^d/A/ G/B/e/B/ F/G/A/F/ |
[V:3]^D/F/A/D/ E/B,/G,/B,/ D/E/F/D/ |
[V:4]B,,6 |
[V:1]=g2 zb bb |
[V:2]=G/B/G/B/ G/B/G/B/ G/B/G/B/ |
[V:3]E/=G/E/G/ E/G/E/G/ E/G/E/G/ |
[V:4]E,2 z4 |
[V:1]d'2 c'2 b2 |
[V:2]G/B/^e/B/ A/c/f/c/ G/B/A/G/ |
[V:3]^E/G/B/E/ F/C/A,/C/ E/G/F/E/ |
[V:4]C,6 |
[V:1]a2 zf ff |
[V:2]F2 z4 |
[V:3]F/C/A,/C/ A,/C/A,/C/ A,/C/A,/C/ |
[V:4]F,2 z4 |
[V:1]g/a/g/a/ ff ff |
[V:2]z2 A/c/A/c/ A/c/A/c/ |
[V:3]B,/C/B,/C/ A,z3 |
[V:4]z6 |
[V:1]b/c'/b/c'/ ac' c'c' |
[V:2]^E/c/E/c/ Fa aa |
[V:3]z2 >F2 FF |
[V:4]z2 >F,2 F,F, |
[V:1]^b2 c'2 g/a/g/a/ |
[V:2]f/g/f/g/ e2 e2 |
[V:3]^D/E/D/E/ C2 c2 |
[V:4]G,6 |
[V:1]a2 f2 e^d/e/ |
[V:2]^d4 c^B/c/ |
[V:3]^B4 c2 |
[V:4]G,,6 |
[V:1]^d2 z4 |
[V:2]^B2 z4 |
[V:3]GF AF ^D^B, |
[V:4]G,F, A,F, ^D,^B,, |
[V:1]e/c/G/c/ G/E/G/c/ e/c/e/g/ |
[V:2]c/G/E/G/ E/C/E/G/ c/G/c/e/ |
[V:3]C2 zG GG |
[V:4]C,2 zC CC |
[V:1]g/f/^e/f/ b/a/g/a/ g/f/=e/^d/ |
[V:2]^d2 zd dd |
[V:3]G2 zG GG |
[V:4]^B,2 zB, B,B, |
[V:1]e/c/G/c/ G/E/G/c/ e/c/e/g/ |
[V:2]c/G/E/G/ E/C/E/G/ c/G/c/e/ |
[V:3]G2 zG GG |
[V:4]C2 zC CC |
[V:1]g/f/^e/f/ b/a/g/a/ g/f/=e/^d/ |
[V:2]^d2 zd dd |
[V:3]G2 zG GG |
[V:4]^B,2 zB, B,B, |
[V:1]e/c/e/g/ c'e ee |
[V:2]e2 zc cc |
[V:3]G2 zG GG |
[V:4]C2 zC, C,C, |
[V:1]^dd2 d2 d- |
[V:2]cc2 c2 c- |
[V:3]FG AG BA |
[V:4]F,G, A,G, B,A, |
[V:1]d^d2 d2 d |
[V:2]cc2 c2 c- |
[V:3]FG AG BA |
[V:4]F,G, A,G, B,A, |
[V:1]ee2 e2 e- |
[V:2]cc2 c2 c- |
[V:3]^^FG ^AF eF |
[V:4]^^F,G, ^A,F, EF, |
[V:1]ef gf ag |
[V:2]c^d ed fe |
[V:3]G6- |
[V:4]G,6- |
[V:1]g2 z2 ^B2 |
[V:2]e2 z2 F2 |
[V:3]G2 z2 ^D2 |
[V:4]G,2 z2 G,,2 |
[V:1]c2 zc cc |
[V:2]E/G/E/G/ E/G/E/G/ E/G/E/G/ |
[V:3]C/E/C/E/ C/E/C/E/ C/E/C/E/ |
[V:4]C,2 z4 |
[V:1]^d2 ^BG GG |
[V:2]F/G/F/G/ F/G/F/G/ F/G/F/G/ |
[V:3]^D/^B,/D/B,/ D/B,/D/B,/ D/B,/D/B,/ |
[V:4]G,,2 z4 |
[V:1]e2 ce ee |
[V:2]E/G/E/G/ E/G/E/G/ E/G/E/G/ |
[V:3]C/E/C/E/ C/E/C/E/ C/E/C/E/ |
[V:4]C,2 z4 |
[V:1]f2 ^dB BB |
[V:2]A/B/A/B/ A/B/A/B/ A/B/A/B/ |
[V:3]^D/B,/F/D/ F/D/F/D/ F/D/F/D/ |
[V:4]B,,2 z4 |
[V:1]g2 eg gg |
[V:2]G/B/G/B/ G/B/G/B/ G/B/G/B/ |
[V:3]E/G/E/G/ E/G/E/G/ E/G/E/G/ |
[V:4]E,2 z4 |
[V:1]^a2 ^^f^d dd |
[V:2]c/^d/c/d/ c/d/c/d/ c/d/c/d/ |
[V:3]^^F/^D/^A/F/ A/F/A/F/ A/F/A/F/ |
[V:4]^D,2 z4 |
[V:1]b2 gb bb |
[V:2]B/^d/B/d/ B/d/B/d/ B/d/B/d/ |
[V:3]G/B/G/B/ G/B/G/B/ G/B/G/B/ |
[V:4]G,,2 z4 |
[V:1]b2 af/^d/ BB |
[V:2]f2 zA AA |
[V:3]A2 >F2 FF |
[V:4]^D2 >D2 DD |
[V:1]B2 zb bb |
[V:2]A2 zA AA |
[V:3]F2 zF FF |
[V:4]^D2 zD DD |
[V:1]=c'2 af/^d/ BB |
[V:2]A2 >A2 AA |
[V:3]F2 zF FF |
[V:4]^D2 >D2 DD |
[V:1]B2 z4 |
[V:2]A2 z4 |
[V:3]F2 z4 |
[V:4]^D2 zB,, B,,B,, |
[V:1]z6 |
[V:2]z2 >B2 BB |
[V:3]z6 |
[V:4]E,4 B,,2 |
[V:1]z2 >b2 bb |
[V:2]e4 B2 |
[V:3]z6 |
[V:4]G,,2 z4 |
[V:1]e'4 b2 |
[V:2]G2 zG GG |
[V:3]z2 >E2 EE |
[V:4]z6 |
[V:1]g2 zb bb |
[V:2]d4 B2 |
[V:3]B4 G2 |
[V:4]z6 |
[V:1]d'4 b2 |
[V:2]G2 z^E EE |
[V:3]^E2 zG GG |
[V:4]z2 >C,2 C,C, |
[V:1]a2 zc' c'c' |
[V:2]F2 zA AA |
[V:3]C2 zF FF |
[V:4]F,4 C,2 |
[V:1]f'4 c'2 |
[V:2]A2 zc cc |
[V:3]C2 zA AA |
[V:4]A,,2 z4 |
[V:1]a2 za aa |
[V:2]f4 d2 |
[V:3]d4 A2 |
[V:4]z6 |
[V:1]d'a fd AF |
[V:2]A2 z4 |
[V:3]F2 D,2 D,2 |
[V:4]z2 >A,2 A,A, |
[V:1]D2 z4 |
[V:2]z2 >A2 AA |
[V:3]D,2 zF FF |
[V:4]DA, F,D, A,,F,, |
[V:1]z2 >^B,2 B,B, |
[V:2]dA FA, A,A, |
[V:3]AF DF, F,F, |
[V:4]D,,6 |
[V:1]C2 >^B,2 B,B, |
[V:2]A,2 G,A, A,A, |
[V:3]F,2 ^E,F, F,F, |
[V:4]C,,2 >C,,2 C,,C,, |
[V:1]C2 >^D2 DD |
[V:2]A,2 G,A, A,A, |
[V:3]F,2 ^E,F, F,F, |
[V:4]C,,2 >^B,,,2 B,,,B,,, |
[V:1]C2 z^D DD |
[V:2]G,2 zA, A,A, |
[V:3]^E,2 zF, F,F, |
[V:4]C,,2 z^B,,, B,,,B,,, |
[V:1]C2 zC CC |
[V:2]G,2 zC CC |
[V:3]^E,2 zC CC |
[V:4]C,,2 zC, C,C, |
[V:1]F4 C2 |
[V:2]F4 C2 |
[V:3]F4 C2 |
[V:4]F,4 C,2 |
[V:1]A,2 za aa |
[V:2]A,2 z4 |
[V:3]A,2 z4 |
[V:4]A,,2 z4 |
[V:1]a2 g^e ee |
[V:2]z2 d2 z2 |
[V:3]z2 B2 z2 |
[V:4]z6 |
[V:1]g2 fc cc |
[V:2]z2 c2 z2 |
[V:3]z2 A2 z2 |
[V:4]z6 |
[V:1]e2 dc BA |
[V:2]z2 >A2 GF |
[V:3]z2 >A,2 B,C |
[V:4]z2 >F,2 G,A, |
[V:1]G2 zB BB |
[V:2]^E2 z4 |
[V:3]D2 z4 |
[V:4]B,2 z4 |
[V:1]d2 cB AG |
[V:2]z2 >G2 F^E |
[V:3]z2 >^E2 FB, |
[V:4]z2 >C,2 F,,C, |
[V:1]F2 z4 |
[V:2]F2 z4 |
[V:3]A,2 z4 |
[V:4]F,2 zC, C,C, |
[V:1]F/G/^A/B/ c/d/e/f/ g/a/b/c'/ |
[V:2]^A,2 B,E DC |
[V:3]C2 Dz3 |
[V:4]E,2 D,C, B,,A,, |
[V:1]d'/c'/b/a/ g/f/e/d/ c/B/A/G/ |
[V:2]B,2 z4 |
[V:3]E,2 z4 |
[V:4]G,,2 zB,, B,,B,, |
[V:1]F/E/G/E/ A/E/B/E/ c/E/d/E/ |
[V:2]zE2 D CB, |
[V:3]z6 |
[V:4]D,2 C,B,, A,,G,, |
[V:1]c/A/c/e/ aa aa |
[V:2]A,2 z4 |
[V:3]z6 |
[V:4]A,,2 z4 |
[V:1]g2 ae ee |
[V:2]zB cz3 |
[V:3]zE A,z3 |
[V:4]zD Cz3 |
[V:1]d2 cB BB |
[V:2]zB EF FF |
[V:3]zE AD DD |
[V:4]zG, A,z3 |
[V:1]=c2 B^A B^c |
[V:2]=G2 FE FG |
[V:3]E2 DC DE |
[V:4]z6 |
[V:1]d2 cB c^d |
[V:2]A2 =GF GA |
[V:3]F2 ED EF |
[V:4]z6 |
[V:1]e^d fe =gf |
[V:2]BA =cB B2- |
[V:3]=GF AG E^D |
[V:4]z6 |
[V:1]a=g b^a c'b |
[V:2]B2 Bc ^AB |
[V:3]FE FE =GF |
[V:4]z2 DC ED |
[V:1]d'2 c'b ag |
[V:2]G6 |
[V:3]^E6 |
[V:4]B,6 |
[V:1]c'2 zf ff |
[V:2]A2 z4 |
[V:3]F2 z4 |
[V:4]A,2 z4 |
[V:1]a2 gg gg |
[V:2]zD DD =F2 |
[V:3]zB, B,B, D2 |
[V:4]z6 |
[V:1]b2 ^aa aa |
[V:2]EE EE =G2 |
[V:3]CC CC E2 |
[V:4]z6 |
[V:1]c'2 bb bb |
[V:2]FF FF B2 |
[V:3]DD DD =G2 |
[V:4]z6 |
[V:1]e'2 d'2 c'2 |
[V:2]^A4 e2 |
[V:3]F4 ^Ac |
[V:4]z2 >F,2 F,F, |
[V:1]c'2 bd' d'd' |
[V:2]d2 >b2 bb |
[V:3]F4 G2 |
[V:4]B,4 G,2 |
[V:1]d'2 c'b bb |
[V:2]b2 >g2 gg |
[V:3]G2 >d2 dd |
[V:4]^E,2 >^E2 EE |
[V:1]b2 zD DD |
[V:2]g2 zD DD |
[V:3]d2 zD DD |
[V:4]^E2 zD, D,D, |
[V:1]D2 zb bb |
[V:2]D2 zg gg |
[V:3]D2 zd dd |
[V:4]D,2 z^E EE |
[V:1]b2 zB, B,B, |
[V:2]g2 zB, B,B, |
[V:3]d2 zB, B,B, |
[V:4]^E2 zB,, B,,B,, |
[V:1]B,2 z^B, B,B, |
[V:2]B,2 z^B, B,B, |
[V:3]B,2 z^B, B,B, |
[V:4]B,,2 z^B,, B,,B,, |
[V:1]^B,2 zC CC |
[V:2]^B,2 zC CC |
[V:3]^B,2 zC CC |
[V:4]^B,,2 zC, C,C, |
[V:1]F4 C2 |
[V:2]F4 C2 |
[V:3]F4 C2 |
[V:4]F,4 C,2 |
[V:1]^A,2 zf ff |
[V:2]^A,/C/A,/C/ A,/C/A,/C/ A,/C/A,/C/ |
[V:3]F,/^A,/F,/A,/ F,/A,/F,/A,/ F,/A,/F,/A,/ |
[V:4]F,,2 z4 |
[V:1]g2 ^ec cc |
[V:2]B,/C/B,/C/ B,/C/B,/C/ B,/C/B,/C/ |
[V:3]G,/^E,/G,/E,/ G,/E,/G,/E,/ G,/E,/G,/E,/ |
[V:4]C,,2 z4 |
[V:1]^a2 fa aa |
[V:2]^A,/C/A,/C/ A,/C/A,/C/ A,/C/A,/C/ |
[V:3]F,/^A,/F,/A,/ F,/A,/F,/A,/ F,/A,/F,/A,/ |
[V:4]F,2 z4 |
[V:1]b2 gg/^e/ cc |
[V:2]G,/C/G,/C/ G,/C/G,/C/ B,/C/B,/C/ |
[V:3]^E,/C,/E,/C,/ E,/C,/E,/C,/ G,/E,/G,/E,/ |
[V:4]C,2 z4 |
[V:1]c'2 ^ac' c'c' |
[V:2]^A,/C/A,/C/ A,/C/A,/C/ A,/C/A,/C/ |
[V:3]F,/^A,/F,/A,/ F,/A,/F,/A,/ F,/A,/F,/A,/ |
[V:4]F,,2 z4 |
[V:1]c'2 b2 ^a2 |
[V:2]^D/^^F/D/F/ D/G/D/G/ C/^A/C/A/ |
[V:3]^A,2 G,2 ^^F,2 |
[V:4]B,,6- |
[V:1]g2 zb bb |
[V:2]B,/^D/B,/D/ B,/D/B,/D/ B,/D/B,/D/ |
[V:3]G,/B,/G,/B,/ G,/B,/G,/B,/ G,/B,/G,/B,/ |
[V:4]B,,B,, B,,B,, B,,B,, |
[V:1]b2 ^a2 g2 |
[V:2]D2 C2 B,^E |
[V:3]^E,/G,/F,/E,/ F,/^A,/F,/A,/ G,/B,/G,/B,/ |
[V:4]C,6 |
[V:1]f2 zf ff |
[V:2]F2 z4 |
[V:3]^A,/C/A,/C/ A,/C/A,/C/ A,/C/A,/C/ |
[V:4]F,,2 z4 |
[V:1]g/^a/g/a/ ff ff |
[V:2]z2 ^A/c/A/c/ A/c/A/c/ |
[V:3]B,/C/B,/C/ ^A,z3 |
[V:4]z6 |
[V:1]b/c'/b/c'/ ^a^d' d'd' |
[V:2]^E/c/E/c/ Ff ff |
[V:3]z6 |
[V:4]z6 |
[V:1]f'2 >^^c'2 c'c' |
[V:2]f6- |
[V:3]z2 >^A2 AA |
[V:4]z6 |
[V:1]^^c'2 ^d'^c' e'd' |
[V:2]f6- |
[V:3]^A2 BA cB |
[V:4]z6 |
[V:1]c'b ^ag f3/g//a// |
[V:2]f4 fe |
[V:3]^AG FE ^DC |
[V:4]z6 |
[V:1]b2 z^d' c'b |
[V:2]^d2 zB ^AG |
[V:3]B,2 z4 |
[V:4]z6 |
[V:1]^a2 >c'2 bg |
[V:2]F2 >^A2 G^E |
[V:3]z2 >F2 GB, |
[V:4]C,C, C,C, C,C, |
[V:1]f2 z4 |
[V:2]F/C/^A,/C/ F/^A/c/f/ ^a/f/c/A/ |
[V:3]^A,2 zA,/C/ A,/C/A,/C/ |
[V:4]F,2 zF, F,F, |
[V:1]c^B/c/ ^a/b/g/^e/ c/B/^d/=B/ |
[V:2]B2 z4 |
[V:3]G,2 zG,/C/ G,/C/G,/C/ |
[V:4]^E,2 zE, E,E, |
[V:1]^A2 z4 |
[V:2]F/C/^A,/C/ F/^A/c/f/ ^a/f/c/A/ |
[V:3]C2 z^A,/C/ A,/C/A,/C/ |
[V:4]F,2 zF, F,F, |
[V:1]c^B/c/ ^a/b/g/^e/ c/B/^d/=B/ |
[V:2]B2 z4 |
[V:3]G,2 zG,/C/ G,/C/G,/C/ |
[V:4]^E,2 zE, E,E, |
[V:1]^A/c/f/^a/ c'c' c'c' |
[V:2]F/C/^A,/C/ F/C/A,/C/ F/^A/B/c/ |
[V:3]C2 z4 |
[V:4]F,2 z4 |
[V:1]c'/b/b/^a/ a/g/g/f/ f/^e/e/^d/ |
[V:2]^dc B^A GF |
[V:3]z6 |
[V:4]z6 |
[V:1]^d^^c ^c^B =B^A |
[V:2]^E4 F2 |
[V:3]z6 |
[V:4]z6 |
[V:1]GG2 G2 G- |
[V:2]B,C DC ED |
[V:3]G,G,2 G,2 G,- |
[V:4]B,,C, D,C, E,D, |
[V:1]GG2 G2 G |
[V:2]B,C DC ED |
[V:3]G,G,2 G,2 G, |
[V:4]B,,C, D,C, E,D, |
[V:1]AA2 A2 A |
[V:2]^B,C ^DC AB, |
[V:3]A,A,2 A,2 A, |
[V:4]^B,,C, ^D,C, A,B,, |
[V:1]^A/F/A/c/ f/c/f/^a/ c'/a/f/c/ |
[V:2]F2 z4 |
[V:3]^A,2 z4 |
[V:4]C,2 z4 |
[V:1]g6 |
[V:2]^EE EE EE |
[V:3]B,B, B,B, B,B, |
[V:4]C,C, C,C, C,C, |
[V:1]f2 zf c^A |
[V:2]F2 zF C^A, |
[V:3]^A,C A,2 z2 |
[V:4]F,C, ^A,,2 z2 |
[V:1]^d2 z^d' bg |
[V:2]^D2 z^d BG |
[V:3]B,^D FB ^dB |
[V:4]B,,^D, F,B, ^DB, |
[V:1]f2 >^a2 g^e |
[V:2]F2 >^A2 G^E |
[V:3]^A2 z2 C,2 |
[V:4]C,F, ^A,C B,G, |
[V:1]f2 zf c^A |
[V:2]F2 zF C^A, |
[V:3]F,C ^A,2 z2 |
[V:4]F,C, ^A,,2 z2 |
[V:1]^d2 z^d' bg |
[V:2]^D2 z^d BG |
[V:3]B,^D FB ^dB |
[V:4]B,,^D, F,B, ^DB, |
[V:1]f2 >^a2 g^e |
[V:2]F2 >^A2 G^E |
[V:3]^A2 z2 C,2 |
[V:4]C,F, ^A,C B,G, |
[V:1]fg ^ab g^e |
[V:2]^AB c^d BG |
[V:3]F,2 z2 C2 |
[V:4]F,2 z2 C,2 |
[V:1]fg ^ab g^e |
[V:2]^AB c^d BG |
[V:3]F^E =E^D CB, |
[V:4]F,2 z2 C,2 |
[V:1]f2 z4 |]
[V:2]F2 z4 |]
[V:3]^A,2 z4 |]
[V:4]F,,2 z4 |]

